X:1
T:Lasso non è cor mio
T:Luca Marenzio
T:Source : Il primo libro delle Villanelle a tre voci---Venetia---G.Vincenzi---1586. Editor : André Vierendeels (10/05/17).
T:Notes : Original clefs : C1, C2, F4 "Terza impressione"
T:Lasso non è cor mio
T:©
T:©
C:Luca Marenzio
Z:©
%%score [ 1 2 3 ]
L:1/8
Q:1/4=120
M:4/4
K:F
V:1 treble nm="Soprano 1" snm="S 1"
V:2 treble nm="Soprano 2" snm="S 2"
V:3 bass nm="Bass" snm="B"
V:1
"^1)" B8 | A8 | G2 A4 =B2 | c2 A2 B2 c2 | d4 c4 | f2 _e4 d2 | c8 |[M:2/4] B4 ::[M:4/4] z2 d3 c d2 | %9
w: Las-|so|non è cor|mio ch'io ti ri-|mi- ri,|che non so-|spi-|ri,|po- scia ch'io|
w: S'io|mi-|ro'i cru- di'e|spa- ven- to- si|sguar- di,|ohi- me son|dar-|di,|che m'han traf-|
 c2 B2 A3 G | A2 B2 G4 | ^F4 z4 | d8 | c8 | B4 A4- | A4 !fermata!G4 :| %16
w: scor- go'in tua bel-|tà'in- fi- ni-|ta,|e|mor-|t'e vi-|* ta.|
w: fit- to'il co- re|di tal sor-|te,|ch'io|bra-|mo mor-|* te.|
V:2
"^2)""^1)""^3)" z4 G4- | G4 ^F4 | G2 D4 D2 | E2 F2 G2 A2 | B4 A4 | F2 G4 B2- | B2 AG A4 | %7
w: Las-|* so|non è cor|mio ch'io ti ri-|mi- ri,|ch'io non so-|* spi- * *|
w: Ma|_ s'io|con- tem- plo'il|tuo leg- gia- dro'as-|pet- to,|con mio di-|* let- * *|
[M:2/4] B4 ::[M:4/4] z2 F3 F F2 | A2 G2 F3 G | F2 D4 C2 | D4 z4 | B8 | A8 | G8 | ^F4 !fermata!G4 :| %16
w: ri,|po- scia ch'io|scor- g'in tua bel-|ta'in- fi- ni-|ta,|e|mor-|t'e|vi- ta.|
w: to,|all' hor io|di- co d'o- gni|noi- a pri-|vo,|per|te|sol|vi- vo.|
V:3
"^1)""^4)" G,8 | D,8 | G,2 ^F,4 G,2 | C,2 F,2 _E,2 C,2 | B,,4 F,4 | D,2 _E,4 B,,2 | F,8 | %7
w: Las-|so|non è cor|mio ch'io ti ri-|mi- ri,|ch'io non so-|spi-|
w: Stu-|pi-|do dun- que|per co- tan- to|be- ne,|dir mi con-|vie-|
[M:2/4] B,,4 ::[M:4/4] z2 B,3 A, B,2 | F,2 G,2 D,3 E, | F,2 G,2 _E,4 | D,4 B,,4- | B,,4 C,4- | %13
w: ri,|po- scia ch'io|scor- go'in tua bel-|tà'in- fi- ni-|ta, e|_ mor-|
w: ne,|io gu- sto'in|ter- ra, nel tuo|va- go vi-|so, il|_ pa-|
 C,4 D,4- | D,4 D,4- | D,4 !fermata!G,,4 :| %16
w: * t'e|_ vi-|* ta.|
w: * ra-|* di-|* so.|

